packages/core/src/svgs/ari10.svg

<svg width="24" height="24" viewBox="0 0 24 24" fill="none" xmlns="http://www.w3.org/2000/svg">
<g clip-path="url(#clip0_31_6064)">
<path d="M0 0H24V24H0V0Z" fill="#F0F3FA"/>
<path d="M12.0001 18C13.2181 18.0011 14.4076 17.6314 15.4104 16.9401C16.4133 16.2488 17.182 15.2687 17.6144 14.13C17.983 14.0872 18.3258 13.9629 18.6258 13.7743C18.2857 15.0459 17.5868 16.1928 16.6125 17.0779C15.6382 17.963 14.4298 18.549 13.1315 18.7659C11.8332 18.9828 10.4999 18.8215 9.29081 18.3011C8.08172 17.7808 7.04796 16.9234 6.31296 15.8315C6.27984 15.7793 6.25902 15.7203 6.25209 15.6589C6.24515 15.5975 6.25228 15.5354 6.27292 15.4771C6.29357 15.4189 6.3272 15.3661 6.37126 15.3228C6.41533 15.2795 6.46866 15.2468 6.52724 15.2272L6.53581 15.2229C6.72867 15.1543 6.93867 15.2315 7.05438 15.3943C7.60483 16.198 8.34293 16.8553 9.20472 17.3093C10.0665 17.7634 11.026 18.0005 12.0001 18ZM6.55724 8.54574C6.75867 8.68288 7.02867 8.62717 7.17438 8.43003C7.7911 7.59714 8.61303 6.93818 9.56011 6.51737C10.5072 6.09656 11.5471 5.92823 12.5786 6.02879C13.6101 6.12934 14.5979 6.49536 15.4459 7.09117C16.2938 7.68698 16.973 8.49228 17.4172 9.4286C17.7987 9.44146 18.1501 9.53574 18.463 9.70288C18.0449 8.52553 17.3132 7.48475 16.3467 6.69298C15.3803 5.9012 14.2159 5.38851 12.9793 5.21027C11.7427 5.03204 10.4809 5.19504 9.33019 5.68168C8.17949 6.16831 7.1836 6.96007 6.4501 7.97146C6.41864 8.01593 6.39642 8.06626 6.38477 8.11948C6.37312 8.17269 6.37226 8.2277 6.38225 8.28125C6.39224 8.3348 6.41288 8.3858 6.44293 8.43124C6.47299 8.47667 6.51186 8.5156 6.55724 8.54574Z" fill="#262859"/>
<path d="M5.52847 13.2857C5.54471 13.287 5.561 13.2837 5.57542 13.2761C5.58984 13.2685 5.6018 13.257 5.6099 13.2428L6.7799 11.0143C6.8099 10.95 6.90418 10.95 6.93418 11.0143L8.10418 13.2428C8.12133 13.2686 8.14704 13.2857 8.18561 13.2857H8.48561C8.5499 13.2857 8.59275 13.2171 8.56275 13.1571L7.07561 10.3286C7.06785 10.3151 7.05657 10.304 7.04298 10.2964C7.02939 10.2889 7.014 10.2852 6.99847 10.2857H6.71561C6.70007 10.2852 6.68469 10.2889 6.6711 10.2964C6.65751 10.304 6.64623 10.3151 6.63847 10.3286L5.15133 13.1571C5.12133 13.2171 5.16418 13.2857 5.23275 13.2857H5.53275H5.52847ZM10.7142 10.2857H9.08561C9.06288 10.2857 9.04108 10.2947 9.025 10.3108C9.00893 10.3269 8.9999 10.3487 8.9999 10.3714V13.2C8.9999 13.2471 9.03847 13.2857 9.08561 13.2857H9.34275C9.3899 13.2857 9.42847 13.2471 9.42847 13.2V10.7143H10.7142C10.9242 10.7143 11.1428 10.9628 11.1428 11.1428C11.1428 11.43 10.997 11.5714 10.7142 11.5714H10.1313C10.1086 11.5714 10.0868 11.5804 10.0707 11.5965C10.0546 11.6126 10.0456 11.6344 10.0456 11.6571V11.97C10.0456 11.9871 10.0542 12.0086 10.067 12.0257L11.0785 13.2557C11.0956 13.2728 11.117 13.2857 11.1428 13.2857H11.4856C11.5585 13.2857 11.597 13.2 11.5542 13.1486L10.6628 12C11.1685 12 11.5713 11.6614 11.5713 11.1428C11.5713 10.6928 11.1428 10.2857 10.7142 10.2857ZM12.5142 13.2857C12.4914 13.2857 12.4696 13.2767 12.4536 13.2606C12.4375 13.2445 12.4285 13.2227 12.4285 13.2V10.3714C12.4285 10.3243 12.467 10.2857 12.5142 10.2857H12.7713C12.8185 10.2857 12.857 10.3243 12.857 10.3714V13.2C12.857 13.2227 12.848 13.2445 12.8319 13.2606C12.8159 13.2767 12.7941 13.2857 12.7713 13.2857H12.5142Z" fill="#202451"/>
<path fill-rule="evenodd" clip-rule="evenodd" d="M17.3569 12.8571C17.6411 12.8571 17.9136 12.7442 18.1145 12.5433C18.3155 12.3423 18.4284 12.0698 18.4284 11.7856C18.4284 11.5015 18.3155 11.229 18.1145 11.028C17.9136 10.8271 17.6411 10.7142 17.3569 10.7142C17.0728 10.7142 16.8003 10.8271 16.5993 11.028C16.3984 11.229 16.2855 11.5015 16.2855 11.7856C16.2855 12.0698 16.3984 12.3423 16.5993 12.5433C16.8003 12.7442 17.0728 12.8571 17.3569 12.8571ZM17.3569 13.2856C17.5539 13.2856 17.749 13.2468 17.931 13.1715C18.1129 13.0961 18.2783 12.9856 18.4176 12.8463C18.5569 12.707 18.6674 12.5417 18.7428 12.3597C18.8181 12.1777 18.8569 11.9826 18.8569 11.7856C18.8569 11.5887 18.8181 11.3936 18.7428 11.2116C18.6674 11.0296 18.5569 10.8643 18.4176 10.725C18.2783 10.5857 18.1129 10.4752 17.931 10.3998C17.749 10.3244 17.5539 10.2856 17.3569 10.2856C16.9591 10.2856 16.5776 10.4437 16.2963 10.725C16.015 11.0063 15.8569 11.3878 15.8569 11.7856C15.8569 12.1835 16.015 12.565 16.2963 12.8463C16.5776 13.1276 16.9591 13.2856 17.3569 13.2856Z" fill="#FFB133"/>
<path d="M15.0002 10.2856L14.1431 10.7142V11.1428L14.5716 10.9285V13.2856H15.0002V10.2856Z" fill="#FFB133"/>
<path fill-rule="evenodd" clip-rule="evenodd" d="M19.4869 11.143C19.3604 11.1405 19.2374 11.1006 19.1334 11.0285C19.0293 10.9563 18.9489 10.8551 18.9023 10.7374C18.8556 10.6197 18.8447 10.4909 18.8709 10.367C18.8971 10.2432 18.9593 10.1299 19.0497 10.0412C19.1401 9.95261 19.2547 9.89265 19.379 9.86887C19.5034 9.84509 19.632 9.85855 19.7487 9.90756C19.8654 9.95657 19.965 10.039 20.0351 10.1444C20.1052 10.2498 20.1426 10.3736 20.1426 10.5002C20.1426 10.8559 19.6155 11.3273 19.3712 11.6402L19.1998 11.503L19.4869 11.143ZM19.4998 10.9287C19.415 10.9287 19.3322 10.9036 19.2617 10.8565C19.1912 10.8094 19.1363 10.7425 19.1038 10.6642C19.0714 10.5858 19.0629 10.4997 19.0795 10.4165C19.096 10.3334 19.1368 10.257 19.1967 10.1971C19.2567 10.1372 19.333 10.0964 19.4162 10.0798C19.4993 10.0633 19.5855 10.0718 19.6638 10.1042C19.7421 10.1366 19.809 10.1916 19.8561 10.262C19.9032 10.3325 19.9284 10.4154 19.9284 10.5002C19.9284 10.7144 19.7184 10.9287 19.4998 10.9287Z" fill="#FFB133"/>
</g>
<defs>
<clipPath id="clip0_31_6064">
<rect width="24" height="24" fill="white"/>
</clipPath>
</defs>
</svg>

<svg xmlns="http://www.w3.org/2000/svg" width="24" height="24" fill="none" viewBox="0 0 24 24"><g clip-path="url(#a)"><path fill="#F0F3FA" d="M0 0h24v24H0z"/><path fill="#262859" d="M12 18a6 6 0 0 0 5.614-3.87 2.4 2.4 0 0 0 1.012-.356 6.857 6.857 0 0 1-12.313 2.058.407.407 0 0 1 .214-.605l.009-.004a.45.45 0 0 1 .518.171A5.99 5.99 0 0 0 12 18M6.557 8.546a.45.45 0 0 0 .617-.116 6 6 0 0 1 10.243.999c.382.012.733.107 1.046.274A6.857 6.857 0 0 0 6.45 7.97a.407.407 0 0 0 .107.575"/><path fill="#202451" d="M5.528 13.286a.09.09 0 0 0 .082-.043l1.17-2.229a.086.086 0 0 1 .154 0l1.17 2.229a.09.09 0 0 0 .082.043h.3a.088.088 0 0 0 .077-.129L7.076 10.33a.09.09 0 0 0-.078-.043h-.282a.09.09 0 0 0-.078.043l-1.487 2.828c-.03.06.013.129.082.129h.3zm5.186-3H9.086A.086.086 0 0 0 9 10.37V13.2c0 .047.038.086.086.086h.257a.086.086 0 0 0 .085-.086v-2.486h1.286c.21 0 .429.249.429.429 0 .287-.146.428-.429.428h-.583a.086.086 0 0 0-.085.086v.313c0 .017.008.039.021.056l1.011 1.23c.018.017.039.03.065.03h.343c.072 0 .111-.086.068-.137L10.663 12c.505 0 .908-.339.908-.857 0-.45-.428-.857-.857-.857m1.8 3a.085.085 0 0 1-.085-.086v-2.829c0-.047.038-.085.085-.085h.257c.047 0 .086.038.086.085V13.2a.086.086 0 0 1-.086.086z"/><path fill="#FFB133" fill-rule="evenodd" d="M17.357 12.857a1.071 1.071 0 1 0 0-2.143 1.071 1.071 0 0 0 0 2.143m0 .429a1.502 1.502 0 0 0 1.386-2.074 1.5 1.5 0 1 0-1.386 2.074" clip-rule="evenodd"/><path fill="#FFB133" d="m15 10.286-.857.428v.429l.429-.215v2.358H15z"/><path fill="#FFB133" fill-rule="evenodd" d="M19.487 11.143a.643.643 0 1 1 .656-.643c0 .356-.527.827-.772 1.14l-.171-.137zm.013-.214a.428.428 0 1 1 .428-.429c0 .214-.21.429-.428.429" clip-rule="evenodd"/></g><defs><clipPath id="a"><path fill="#fff" d="M0 0h24v24H0z"/></clipPath></defs></svg>
